images/twitter.svg

<svg width="24" height="24" fill="none" xmlns="http://www.w3.org/2000/svg"><g clip-path="url(#clip0_1_950)"><path d="M19 0H5a5 5 0 00-5 5v14a5 5 0 005 5h14a5 5 0 005-5V5a5 5 0 00-5-5zm-.139 9.237c.209 4.617-3.234 9.765-9.33 9.765a9.286 9.286 0 01-5.032-1.475 6.605 6.605 0 004.86-1.359 3.285 3.285 0 01-3.066-2.28 3.3 3.3 0 001.482-.056c-1.579-.317-2.668-1.739-2.633-3.26.442.246.949.394 1.486.411A3.289 3.289 0 015.612 6.6a9.32 9.32 0 006.766 3.43 3.286 3.286 0 015.594-2.993 6.583 6.583 0 002.086-.796 3.296 3.296 0 01-1.443 1.816A6.578 6.578 0 0020.5 7.54a6.66 6.66 0 01-1.639 1.697z" fill="#F5F4F1"/></g><defs><clipPath id="clip0_1_950"><path fill="#fff" d="M0 0h24v24H0z"/></clipPath></defs></svg>

<svg width="24" height="24" viewBox="0 0 24 24" fill="none" xmlns="http://www.w3.org/2000/svg">
<path class='twitter' d="M19 0H5C2.239 0 0 2.239 0 5V19C0 21.761 2.239 24 5 24H19C21.762 24 24 21.761 24 19V5C24 2.239 21.762 0 19 0ZM18.861 9.237C19.07 13.854 15.627 19.002 9.531 19.002C7.677 19.002 5.952 18.459 4.499 17.527C6.241 17.732 7.979 17.249 9.359 16.168C7.922 16.141 6.71 15.192 6.293 13.888C6.808 13.986 7.314 13.957 7.775 13.832C6.196 13.515 5.107 12.093 5.142 10.572C5.584 10.818 6.091 10.966 6.628 10.983C5.167 10.006 4.753 8.076 5.612 6.6C7.231 8.586 9.65 9.893 12.378 10.03C11.899 7.977 13.458 6 15.577 6C16.52 6 17.374 6.398 17.972 7.037C18.72 6.89 19.423 6.617 20.058 6.241C19.812 7.008 19.292 7.651 18.615 8.057C19.279 7.977 19.912 7.801 20.5 7.54C20.061 8.196 19.504 8.774 18.861 9.237Z" fill="#111111"/>
</svg>
